T: Ymdaith Yr Hen Gymry
M: 4/4
L: 1/8
K: Dmaj
|: (3A/B/c/ |dd/d/ dd AA/B/ cA | dd c/d/e/f/ g2 a>g |
fd/d/ dd A>B cA | dd c/d/e/g/ fd d :|
|: f/g/ |aa/a/ af/g/ aa/a/ ae/f/ | gg/g/ ge/f/ gg/g/ a/g/f/e/ |
fd/d/ dd AA/B/ cA | dd c/d/e/g/ fd d :|
